<?xml version="1.0" encoding="UTF-8"?>
<map version="1.10" tiledversion="1.12.1" orientation="orthogonal" renderorder="right-down" width="29" height="21" tilewidth="32" tileheight="32" infinite="0" nextlayerid="9" nextobjectid="1">
 <tileset firstgid="1" source="OutWorld_Tileset.tsx"/>
 <layer id="1" name="Ground" width="29" height="21" locked="1">
  <data encoding="csv">
162,163,162,163,162,163,162,163,162,163,162,163,162,163,162,163,162,163,162,163,162,163,162,163,162,163,162,163,162,
194,195,194,195,194,195,194,195,194,195,194,195,194,195,194,195,194,195,194,195,194,195,194,195,194,195,194,195,194,
162,163,162,163,162,163,162,163,162,163,162,163,162,163,162,163,162,163,162,163,162,163,162,163,162,163,162,163,162,
194,195,194,195,194,195,194,195,194,195,194,195,194,195,194,195,194,195,194,195,194,195,194,195,194,195,194,195,194,
162,163,162,163,162,163,162,163,162,163,162,163,162,163,162,163,162,163,162,163,162,163,162,163,162,163,162,163,162,
194,195,194,195,194,195,194,195,194,195,194,195,194,195,194,195,194,195,194,195,194,195,194,195,194,195,194,195,194,
162,163,162,163,162,163,162,163,162,163,162,163,162,163,162,163,162,163,162,163,162,163,162,163,162,163,162,163,162,
194,195,194,195,194,195,194,195,194,195,194,195,194,195,194,195,194,195,194,195,194,195,194,195,194,195,194,195,194,
162,163,162,163,162,163,162,163,162,163,162,163,162,163,162,163,162,163,162,163,162,163,162,163,162,163,162,163,162,
194,195,194,195,194,195,194,195,194,195,194,195,194,195,194,195,194,195,194,195,194,195,194,195,194,195,194,195,194,
162,163,162,163,162,163,162,163,162,163,162,163,162,163,162,163,162,163,162,163,162,163,162,163,162,163,162,163,162,
194,195,194,195,194,195,194,195,194,195,194,195,194,195,194,195,194,195,194,195,194,195,194,195,194,195,194,195,194,
162,163,162,163,162,163,162,163,162,163,162,163,162,163,162,163,162,163,162,163,162,163,162,163,162,163,162,163,162,
194,195,194,195,194,195,194,195,194,195,194,195,194,195,194,195,194,195,194,195,194,195,194,195,194,195,194,195,194,
162,163,162,163,162,163,162,163,162,163,162,163,162,163,162,163,162,163,162,163,162,163,162,163,162,163,162,163,162,
194,195,194,195,194,195,194,195,194,195,194,195,194,195,194,195,194,195,194,195,194,195,194,195,194,195,194,195,194,
162,163,162,163,162,163,162,163,162,163,162,163,162,163,162,163,162,163,162,163,162,163,162,163,162,163,162,163,162,
194,195,194,195,194,195,194,195,194,195,194,195,194,195,194,195,194,195,194,195,194,195,194,195,194,195,194,195,194,
162,163,162,163,162,163,162,163,162,163,162,163,162,163,162,163,162,163,162,163,162,163,162,163,162,163,162,163,162,
194,195,194,195,194,195,194,195,194,195,194,195,194,195,194,195,194,195,194,195,194,195,194,195,194,195,194,195,194,
162,163,162,163,162,163,162,163,162,163,162,163,162,163,162,163,162,163,162,163,162,163,162,163,162,163,162,163,162
</data>
 </layer>
 <layer id="6" name="Path" width="29" height="21" locked="1">
  <data encoding="csv">
0,0,0,0,0,0,0,0,0,0,0,0,0,0,0,0,0,0,0,0,0,0,0,0,0,0,0,0,0,
0,0,0,0,0,0,0,0,0,0,0,0,0,0,0,0,0,0,0,0,0,0,0,0,0,0,0,0,0,
0,0,0,0,0,0,0,0,0,0,0,0,0,0,0,0,0,0,0,0,0,0,0,0,0,0,0,0,0,
0,0,0,0,0,0,0,0,0,0,0,0,0,0,0,0,0,0,0,0,0,0,0,0,0,0,0,0,0,
0,0,0,0,0,0,0,0,0,0,0,0,0,0,0,0,0,0,0,0,0,0,0,0,0,0,0,0,0,
0,0,0,0,0,0,0,0,0,0,0,0,0,0,0,0,0,0,0,0,0,0,0,0,0,0,0,0,0,
1,2,3,2,3,4,0,0,0,0,0,0,0,0,0,0,0,0,0,0,0,0,0,0,0,0,0,0,0,
38,34,35,34,35,37,4,0,0,0,0,0,0,0,0,0,0,0,0,0,0,0,0,0,0,0,0,0,0,
34,66,67,66,67,35,36,0,0,0,0,0,0,0,0,0,0,0,0,0,0,0,0,0,0,0,0,0,0,
34,35,66,67,67,67,2,3,4,0,0,0,0,0,0,0,0,0,0,0,0,0,0,0,0,0,0,0,0,
66,67,34,34,35,35,34,35,36,0,0,0,0,0,0,0,0,0,0,0,0,0,0,0,0,0,0,0,0,
34,35,66,66,67,34,34,35,37,3,4,0,0,0,0,0,0,0,0,0,0,0,0,0,0,0,0,0,0,
34,35,34,35,67,34,35,67,34,35,37,3,4,0,0,0,0,0,0,0,1,3,4,0,0,0,0,0,0,
34,35,34,35,35,66,67,34,34,35,35,35,36,0,0,0,0,0,1,2,69,98,100,0,0,0,0,0,0,
34,35,66,67,67,34,34,35,66,67,67,67,68,0,0,0,0,0,97,99,100,0,0,0,0,0,0,0,0,
66,67,5,98,6,66,66,67,5,98,99,99,70,2,3,4,1,2,3,4,0,0,0,0,0,0,0,0,0,
98,99,100,0,97,6,66,67,68,0,0,0,65,66,67,37,69,99,99,100,0,0,0,0,0,0,0,0,0,
0,0,0,0,0,97,98,99,100,0,0,0,97,98,99,99,100,0,0,0,0,0,0,0,0,0,0,0,0,
0,0,0,0,0,0,0,0,0,0,0,0,0,0,0,0,0,0,0,0,0,0,0,0,0,0,0,0,0,
0,0,0,0,0,0,0,0,0,0,0,0,0,0,0,0,0,0,0,0,0,0,0,0,0,0,0,0,0,
0,0,0,0,0,0,0,0,0,0,0,0,0,0,0,0,0,0,0,0,0,0,0,0,0,0,0,0,0
</data>
 </layer>
 <layer id="4" name="Plateu 1" width="29" height="21" locked="1">
  <data encoding="csv">
0,0,0,0,0,225,393,163,163,163,163,163,163,163,0,0,0,0,0,0,0,0,0,0,0,0,0,0,0,
0,0,0,0,0,0,193,163,163,163,163,163,163,0,0,0,0,0,0,0,0,0,0,0,0,0,0,0,0,
0,0,0,0,0,0,225,226,393,163,163,163,163,0,0,0,0,0,0,0,0,0,0,0,0,0,0,0,0,
0,0,0,0,0,0,0,0,225,393,162,163,163,0,0,0,0,0,0,0,0,0,0,0,0,0,0,0,0,
0,0,0,0,0,0,0,0,0,193,194,195,163,0,0,0,0,0,0,0,0,0,0,0,0,0,0,0,0,
0,0,0,0,0,0,0,0,0,225,226,227,163,0,0,0,0,0,0,0,0,0,0,0,0,0,0,0,0,
0,0,0,0,0,0,0,0,0,0,0,0,0,0,0,0,0,0,0,0,0,0,0,0,0,0,0,0,0,
0,0,0,0,0,0,0,0,0,0,0,0,0,0,0,0,0,0,0,0,0,0,0,0,0,0,0,0,0,
0,0,0,0,0,0,0,0,0,0,0,0,0,0,0,0,0,0,0,0,0,0,0,0,0,0,0,0,0,
0,0,0,0,0,0,0,0,0,0,0,0,0,0,0,0,0,0,0,0,0,0,0,0,0,0,0,0,0,
0,0,0,0,0,0,0,0,0,0,0,0,0,0,0,0,0,0,0,0,0,0,0,0,0,0,0,0,0,
0,0,0,0,0,0,0,0,0,0,0,0,0,0,0,0,0,0,0,0,0,0,0,0,0,0,0,0,0,
0,0,0,0,0,0,0,0,0,0,0,0,0,0,0,0,0,0,0,0,0,0,0,0,0,0,0,0,0,
0,0,0,0,0,0,0,0,0,0,0,0,0,0,0,0,0,0,0,0,0,0,0,0,0,0,0,0,0,
0,0,0,0,0,0,0,0,0,0,0,0,0,0,0,0,0,0,0,0,0,0,0,0,0,0,0,0,0,
0,0,0,0,0,0,0,0,0,0,0,0,0,0,0,0,0,0,0,0,0,0,0,0,0,0,0,0,0,
0,0,0,0,0,0,0,0,0,0,0,0,0,0,0,0,0,0,0,0,0,0,0,0,0,0,0,0,0,
0,0,0,0,0,0,0,0,0,0,0,0,0,0,0,0,0,0,0,0,0,0,0,0,0,0,0,0,0,
0,0,0,0,0,0,0,0,0,0,0,0,0,0,0,0,0,0,0,0,0,0,0,0,0,0,0,0,0,
0,0,0,0,0,0,0,0,0,0,0,0,0,0,0,0,0,0,0,0,0,0,0,0,0,0,0,0,0,
0,0,0,0,0,0,0,0,0,0,0,0,0,0,0,0,0,0,0,0,0,0,0,0,0,0,0,0,0
</data>
 </layer>
 <layer id="2" name="Plateu 2" width="29" height="21" locked="1">
  <data encoding="csv">
0,0,0,0,0,0,0,0,0,0,0,264,296,297,162,163,162,163,162,163,162,163,162,163,162,163,162,163,162,
0,0,0,0,0,0,0,0,0,0,0,296,297,162,163,195,194,195,194,195,194,195,194,195,194,195,194,195,194,
0,0,0,0,0,0,0,0,0,0,0,328,162,194,162,163,162,163,162,163,162,163,162,163,162,163,162,163,162,
0,0,0,0,0,0,0,0,0,0,0,360,194,162,162,163,194,195,194,195,194,195,194,195,194,195,194,195,194,
0,0,0,0,0,0,0,0,0,0,0,392,393,194,194,195,162,163,162,163,162,163,162,163,162,163,162,163,162,
0,0,0,0,0,0,0,0,0,0,0,424,425,426,427,393,194,195,194,195,194,195,194,195,194,195,194,195,194,
0,0,0,0,0,0,0,0,0,0,0,456,457,458,459,425,426,427,426,427,393,162,163,162,163,162,163,162,163,
0,0,0,0,0,0,0,0,0,0,0,0,489,490,491,457,458,459,458,459,425,426,393,194,195,163,162,163,162,
0,0,0,0,0,0,0,0,0,0,0,0,0,0,488,489,490,491,490,491,457,458,458,393,194,195,194,195,194,
0,0,0,0,0,0,0,0,0,0,0,0,0,0,0,0,0,0,0,0,489,490,2147484035,2147484034,426,393,162,163,162,
0,0,0,0,0,0,0,0,0,0,0,0,0,0,0,0,0,0,0,0,0,456,2147484067,2147484066,458,425,426,393,162,
0,0,0,0,0,0,0,0,0,0,0,0,0,0,0,0,0,0,0,0,0,0,2147484099,2147484098,490,457,458,425,195,
0,0,0,0,0,0,0,0,0,0,0,0,0,0,0,0,0,0,0,0,0,0,0,0,0,489,490,457,195,
0,0,0,0,0,0,0,0,0,0,0,0,0,0,0,0,0,0,0,0,0,0,0,0,0,0,456,457,195,
0,0,0,0,0,0,0,0,0,0,0,0,0,0,0,0,0,0,0,0,0,0,0,0,0,0,0,489,195,
0,0,0,0,0,0,0,0,0,0,0,0,0,0,0,0,0,0,0,0,0,0,0,0,0,0,0,328,195,
0,0,0,0,0,0,0,0,0,0,0,0,0,0,0,0,0,0,0,0,0,0,0,0,0,0,0,360,195,
0,0,0,0,0,0,0,0,0,0,0,0,0,0,0,0,0,0,0,0,0,0,0,0,0,0,265,297,195,
0,0,0,0,0,0,0,0,0,0,0,0,0,0,0,0,0,0,0,0,0,0,0,265,266,267,297,195,195,
0,0,0,0,0,0,0,0,0,0,0,0,0,0,0,0,0,0,0,0,0,0,296,297,195,195,195,195,195,
0,0,0,0,0,0,0,0,0,0,0,0,0,0,0,0,0,0,0,0,0,0,328,194,195,195,195,195,195
</data>
 </layer>
 <layer id="3" name="Plateu 3" width="29" height="21" locked="1">
  <data encoding="csv">
0,0,0,0,0,0,0,0,0,0,0,0,0,0,0,0,0,0,225,393,194,194,194,194,194,194,194,162,163,
0,0,0,0,0,0,0,0,0,0,0,0,0,0,0,0,0,0,0,392,226,227,226,393,162,163,163,163,163,
0,0,0,0,0,0,0,0,0,0,0,0,0,0,0,0,0,0,0,0,0,194,195,193,194,195,195,195,163,
0,0,0,0,0,0,0,0,0,0,0,0,0,0,0,0,0,0,0,0,0,0,0,225,226,227,393,195,195,
0,0,0,0,0,0,0,0,0,0,0,0,0,0,0,0,0,0,0,0,0,0,0,0,0,0,225,226,393,
0,0,0,0,0,0,0,0,0,0,0,0,0,0,0,0,0,0,0,0,0,0,0,0,0,0,0,0,225,
0,0,0,0,0,0,0,0,0,0,0,0,0,0,0,0,0,0,0,0,0,0,0,0,0,0,0,0,0,
0,0,0,0,0,0,0,0,0,0,0,0,0,0,0,0,0,0,0,0,0,0,0,0,0,0,0,0,0,
0,0,0,0,0,0,0,0,0,0,0,0,0,0,0,0,0,0,0,0,0,0,0,0,0,0,0,0,0,
0,0,0,0,0,0,0,0,0,0,0,0,0,0,0,0,0,0,0,0,0,0,0,0,0,0,0,0,0,
0,0,0,0,0,0,0,0,0,0,0,0,0,0,0,0,0,0,0,0,0,0,0,0,0,0,0,0,0,
0,0,0,0,0,0,0,0,0,0,0,0,0,0,0,0,0,0,0,0,0,0,0,0,0,0,0,328,0,
0,0,0,0,0,0,0,0,0,0,0,0,0,0,0,0,0,0,0,0,0,0,0,0,0,0,0,360,0,
0,0,0,0,0,0,0,0,0,0,0,0,0,0,0,0,0,0,0,0,0,0,0,0,0,0,0,328,0,
0,0,0,0,0,0,0,0,0,0,0,0,0,0,0,0,0,0,0,0,0,0,0,0,0,0,0,360,0,
0,0,0,0,0,0,0,0,0,0,0,0,0,0,0,0,0,0,0,0,0,0,0,0,0,0,0,328,0,
0,0,0,0,0,0,0,0,0,0,0,0,0,0,0,0,0,0,0,0,0,0,0,0,0,0,0,360,0,
0,0,0,0,0,0,0,0,0,0,0,0,0,0,0,0,0,0,0,0,0,0,0,0,0,0,0,0,0,
0,101,102,0,0,0,0,0,0,0,0,0,0,0,0,0,0,0,0,0,0,0,0,0,0,0,0,0,0,
396,2147483873,225,226,227,102,0,0,0,0,0,0,0,0,0,0,0,0,0,0,0,0,0,0,0,0,0,0,0,
2147483873,0,0,0,0,392,226,426,427,426,427,426,427,426,427,426,427,426,427,102,102,0,0,329,0,0,0,0,0
</data>
 </layer>
 <layer id="5" name="Trees" width="29" height="21" locked="1">
  <data encoding="csv">
105,106,107,9,10,0,0,0,0,9,10,0,0,108,109,110,111,112,0,0,44,45,46,47,48,141,142,143,144,
137,138,139,41,42,0,0,0,0,41,42,0,0,140,141,142,143,144,0,0,76,77,78,79,80,173,174,175,176,
0,0,0,0,0,0,0,0,0,0,0,0,0,172,173,174,175,176,0,0,108,109,110,111,112,0,0,0,0,
0,0,0,0,0,0,0,0,0,0,0,0,0,0,0,0,0,0,0,0,140,141,142,143,144,12,13,14,15,
0,0,0,0,0,0,0,0,0,0,0,0,0,0,0,0,0,0,0,0,172,173,174,175,176,44,45,46,47,
0,0,0,0,0,0,0,0,0,9,10,0,0,0,0,0,0,0,0,0,0,0,0,0,0,76,77,78,79,
0,0,0,0,0,0,0,0,0,41,42,0,0,0,0,0,0,0,0,0,0,0,0,0,0,108,109,110,111,
0,0,0,0,0,0,0,0,0,0,0,0,0,0,0,0,0,0,0,0,0,0,0,0,0,140,141,142,143,
0,0,0,0,0,0,0,0,0,0,0,0,0,169,0,103,104,0,167,168,0,0,0,0,0,172,173,174,175,
0,0,0,0,0,0,0,0,0,0,0,0,0,0,0,135,136,0,199,200,0,0,0,0,0,0,0,0,0,
0,0,0,0,0,0,0,0,0,0,0,0,0,0,0,0,0,0,0,0,170,0,0,0,0,0,0,0,0,
0,0,0,0,0,0,0,0,0,0,0,0,0,0,0,0,0,0,0,0,0,0,0,0,0,0,0,0,0,
0,0,0,0,0,0,0,0,0,0,0,0,0,0,0,0,0,0,0,0,0,0,0,0,169,0,0,0,0,
0,0,0,0,0,0,0,0,0,0,0,0,0,0,0,0,0,0,0,0,0,0,0,0,0,0,0,0,0,
0,0,0,0,0,0,0,0,0,0,0,0,0,0,0,0,0,0,0,0,0,0,0,0,0,7,8,0,0,
0,0,0,0,0,0,0,0,0,0,0,0,0,0,0,0,0,0,0,0,0,0,0,0,0,39,40,0,0,
0,0,0,0,0,0,0,0,0,105,106,107,0,0,0,0,0,0,0,0,0,0,0,0,0,71,72,0,0,
0,0,0,0,0,0,0,0,0,137,138,139,0,0,0,0,0,0,0,0,0,0,0,0,0,0,0,0,0,
0,0,0,0,0,0,0,0,0,0,0,0,0,0,0,0,0,0,0,0,0,0,0,0,0,0,0,0,0,
0,0,0,0,0,0,0,0,0,0,0,0,0,0,0,0,0,0,0,0,167,168,0,0,0,0,0,0,0,
0,0,0,0,0,0,0,0,0,0,0,0,0,0,0,0,0,0,0,0,199,200,0,0,0,0,0,0,0
</data>
 </layer>
 <layer id="7" name="Plant" width="29" height="21">
  <data encoding="csv">
0,0,0,0,0,0,0,0,0,0,0,0,0,0,0,0,0,0,0,0,0,0,0,0,0,0,0,0,0,
0,0,0,0,0,0,0,0,0,0,0,0,0,0,0,0,0,0,0,0,0,0,0,0,0,0,0,0,0,
0,0,201,0,0,169,0,0,0,0,0,0,202,0,0,0,0,0,0,201,0,0,0,0,0,0,0,203,0,
0,0,0,0,0,0,0,0,0,0,0,0,0,0,0,0,171,0,0,0,0,0,0,0,0,0,0,0,0,
0,0,0,0,0,0,0,0,0,0,0,0,0,0,0,0,0,0,0,0,0,0,0,0,0,0,0,0,0,
0,0,0,0,0,0,0,0,0,0,0,0,0,0,0,0,0,0,0,0,203,0,0,0,0,0,0,0,0,
0,0,0,0,0,0,170,0,0,0,0,0,0,0,0,0,0,0,0,0,0,0,0,0,0,0,0,0,0,
0,0,0,0,0,0,0,0,0,0,0,0,0,0,0,0,0,0,0,0,0,0,0,0,0,0,0,0,0,
0,0,0,0,0,0,0,202,0,0,0,0,0,0,0,0,0,0,0,0,0,0,0,0,0,0,0,0,0,
0,0,0,0,0,0,0,0,0,0,0,0,0,0,0,0,0,0,0,0,0,0,0,0,0,0,0,0,0,
0,0,0,0,0,0,0,0,0,0,0,0,0,0,0,0,0,0,0,0,0,0,0,0,0,0,0,0,201,
0,0,0,0,0,0,0,0,0,0,0,0,0,0,0,0,0,0,0,0,0,0,0,0,0,0,0,0,0,
0,0,0,0,0,0,0,0,0,0,0,0,0,0,0,0,0,0,0,0,0,0,0,0,0,0,0,0,0,
0,0,0,0,0,0,0,0,0,0,0,0,0,0,0,0,0,0,0,0,0,0,0,0,201,0,0,0,0,
0,0,0,0,0,0,0,0,0,0,0,0,0,0,0,0,0,201,0,0,0,0,0,0,0,0,0,0,0,
0,0,0,0,0,0,0,0,0,0,0,0,0,0,0,0,0,0,0,0,0,0,0,0,0,0,0,0,0,
0,0,0,202,0,0,0,0,0,0,0,0,0,0,0,0,0,0,0,0,170,0,0,0,0,0,0,0,0,
0,0,0,170,0,0,0,0,0,0,0,0,0,0,0,0,0,0,0,0,0,0,0,0,0,0,0,0,0,
0,0,0,0,0,0,0,0,0,0,0,0,170,0,202,0,0,0,0,0,0,0,0,0,0,0,0,0,0,
0,0,0,0,0,0,0,0,0,0,0,0,0,0,0,0,0,0,0,0,0,0,0,0,0,0,202,0,0,
0,0,201,0,0,0,0,0,0,0,0,0,0,0,0,0,0,0,0,0,0,0,0,0,203,0,0,0,0
</data>
 </layer>
 <layer id="8" name="Collision" width="29" height="21" visible="0" locked="1">
  <data encoding="csv">
63,63,63,63,63,63,63,0,0,63,63,0,63,63,0,0,0,0,63,63,0,0,0,0,0,0,0,0,0,
63,63,63,63,63,0,63,0,0,63,63,63,63,0,0,0,0,0,0,63,63,63,63,63,0,0,63,0,0,
0,0,0,0,0,63,63,63,63,0,0,63,0,0,0,63,0,0,0,0,0,0,0,63,0,0,0,0,0,
0,0,0,0,0,0,0,0,63,63,0,63,0,0,0,0,0,0,0,0,0,0,0,63,63,63,63,0,0,
0,0,0,0,0,0,0,0,0,63,0,63,63,0,0,0,0,0,0,0,0,0,63,0,0,0,63,63,63,
0,0,0,0,0,0,0,0,0,63,63,63,63,63,63,63,0,0,0,0,0,0,0,0,0,0,0,0,63,
0,0,0,0,0,0,0,0,0,63,63,63,63,0,0,63,63,63,63,63,63,0,0,0,0,0,0,0,0,
0,0,0,0,0,0,0,0,0,0,0,0,63,63,63,63,0,0,0,0,63,63,63,0,0,0,0,0,0,
0,0,0,0,0,0,0,0,0,0,0,0,0,63,0,63,63,63,63,63,0,0,63,63,0,0,0,63,0,
0,0,0,0,0,0,0,0,0,0,0,0,0,0,0,63,63,0,63,63,63,63,0,63,63,63,0,0,0,
0,0,0,0,0,0,0,0,0,0,0,0,0,0,0,0,0,0,0,0,63,63,63,63,0,63,63,63,0,
0,0,0,0,0,0,0,0,0,0,0,0,0,0,0,0,0,0,0,0,0,0,0,63,63,63,0,63,0,
0,0,0,0,0,0,0,0,0,0,0,0,0,0,0,0,0,0,0,0,0,0,0,0,63,63,63,63,0,
0,0,0,0,0,0,0,0,0,0,0,0,0,0,0,0,0,0,0,0,0,0,0,0,0,0,63,63,0,
0,0,0,0,0,0,0,0,0,0,0,0,0,0,0,0,0,0,0,0,0,0,0,0,0,63,63,63,0,
0,0,0,0,0,0,0,0,0,0,0,0,0,0,0,0,0,0,0,0,0,0,0,0,0,63,63,63,0,
0,0,0,0,0,0,0,0,0,63,63,63,0,0,0,0,0,0,0,0,0,0,0,0,0,63,63,63,0,
0,0,0,0,0,0,0,0,0,63,63,63,0,0,0,0,0,0,0,0,0,0,0,0,0,0,63,63,0,
0,63,63,0,0,0,0,0,0,0,0,0,0,0,0,0,0,0,0,0,0,0,0,63,63,63,63,0,0,
63,63,63,63,63,63,0,0,0,0,0,0,0,0,0,0,0,0,0,0,63,63,63,63,0,0,0,0,0,
63,0,0,0,0,63,63,63,63,63,63,63,63,63,63,63,63,63,63,63,63,63,63,0,0,0,0,0,0
</data>
 </layer>
</map>
